X:573
T:Polska efter Olof Nordblad
T:(SvL Hälsingland 573)
R:Polska
B:Svenska Låtar Hälsingland
O:Norrala, Hälsingland
S:Olof Nordblad
M:3/4
L:1/8
K:Gm
vg>d BG B/A/G/^F/|GG/A/ (B/A/)G/^F/ GA|BB/c/ (d/c/)B/A/ Bd|d/c/B/A/ c2 Bz:|
|:ff/d/ BB/F/ BB/d/|cc/e/ AA/c/ (B/A/)B/d/|ff/d/ BB/F/ BB/d/|cc/e/ AA/c/ (B/A/)B/d/|
dB AG ^FA|Gg ^f/g/a/f/ gd|d/c/e/d/ cB AG|B/A/G/^F/ G2 G,2:|

